static/icons/companies/x-gray.svg

<svg width="28" height="28" viewBox="0 0 28 28" fill="none" xmlns="http://www.w3.org/2000/svg">
<path d="M18.7447 6.42798H21.2748L15.7473 12.7456L22.25 21.3425H17.1584L13.1705 16.1285L8.60746 21.3425H6.07582L11.9881 14.585L5.75 6.42798H10.9708L14.5755 11.1937L18.7447 6.42798ZM17.8567 19.8281H19.2587L10.209 7.86283H8.7046L17.8567 19.8281Z" fill="#B6B6B7"/>
</svg>

<svg xmlns="http://www.w3.org/2000/svg" width="28" height="28" fill="none"><path fill="#B6B6B7" d="M18.745 6.428h2.53l-5.528 6.318 6.503 8.597h-5.092l-3.988-5.215-4.563 5.215H6.076l5.912-6.758L5.75 6.428h5.22l3.605 4.766zm-.888 13.4h1.402l-9.05-11.965H8.705z"/></svg>
